public/about-feature-04.svg

<svg width="101" height="101" viewBox="0 0 101 101" fill="none" xmlns="http://www.w3.org/2000/svg">
<g clip-path="url(#clip0_6511_2272)">
<g clip-path="url(#clip1_6511_2272)">
<g clip-path="url(#clip2_6511_2272)">
<mask id="mask0_6511_2272" style="mask-type:luminance" maskUnits="userSpaceOnUse" x="1" y="0" width="100" height="100">
<path d="M100.435 0.97998H1.59375V99.8217H100.435V0.97998Z" fill="white"/>
</mask>
<g mask="url(#mask0_6511_2272)">
<path d="M74.1436 94.2235C73.1426 94.2235 72.3195 94.985 72.2224 95.9605H57.6948L55.403 82.1595L57.9504 79.6122C58.3124 79.2502 58.5158 78.759 58.5158 78.2472C58.5158 77.7352 58.3124 77.2442 57.9504 76.882L55.6964 74.628H59.548C63.775 74.628 67.7084 76.726 70.0693 80.2403C70.6638 81.1253 71.8634 81.3606 72.7481 80.7663C73.6331 80.1716 73.8686 78.9722 73.274 78.087C70.2188 73.5396 65.1437 70.8118 59.6778 70.7689C61.548 68.6979 62.6887 65.9562 62.6887 62.9528V60.1213C62.6887 53.6835 57.4513 48.446 51.0134 48.446C44.5756 48.446 39.3381 53.6835 39.3381 60.1213V62.9528C39.3381 65.957 40.4793 68.699 42.3498 70.7703C33.297 70.8402 25.9531 78.2238 25.9531 87.2929V97.8909C25.9531 98.957 26.8174 99.8215 27.8837 99.8215H74.1431C75.2094 99.8215 76.0737 98.957 76.0737 97.8909V96.1539C76.074 95.0879 75.2097 94.2235 74.1436 94.2235ZM51.036 81.0665L48.2166 78.2472L51.036 75.4279L53.8556 78.2472L51.036 81.0665ZM50.0367 85.4462C50.3431 85.6319 50.6891 85.727 51.0358 85.727C51.3826 85.727 51.7287 85.632 52.0348 85.4462L53.781 95.9605H48.2906L50.0367 85.4462ZM43.1996 60.1213C43.1996 55.8126 46.7048 52.307 51.0138 52.307C55.3227 52.307 58.8281 55.8123 58.8281 60.1213V62.9528C58.8281 67.2615 55.3227 70.767 51.0138 70.767C46.7048 70.767 43.1996 67.2616 43.1996 62.9528V60.1213ZM29.8146 87.2929C29.8146 80.3093 35.496 74.628 42.4794 74.628H46.3751L44.1211 76.882C43.7591 77.2442 43.5557 77.7352 43.5557 78.2472C43.5557 78.759 43.7591 79.2502 44.1211 79.6122L46.6686 82.1595L44.3767 95.9605H29.8144L29.8146 87.2929Z" fill="#3BB77E"/>
<path d="M40.7812 3.1228C41.3527 3.1228 54.3527 3.59899 60.7812 3.83709V24.5514L40.7812 23.8371V3.1228Z" fill="#FDC040"/>
<path d="M86.4961 3.83691L76.4961 22.4083H97.9247L87.9247 4.5512L86.4961 3.83691Z" fill="#FDC040"/>
<path d="M40.7812 3.1228C41.3527 3.1228 54.3527 3.59899 60.7813 3.83709V24.5514L40.7812 23.8371V3.1228Z" stroke="black" stroke-width="1.42857" stroke-linecap="round" stroke-linejoin="round"/>
<path d="M86.4961 3.83691L76.4961 22.4083H97.9247L87.9247 4.5512L86.4961 3.83691Z" stroke="black" stroke-width="1.42857" stroke-linecap="round" stroke-linejoin="round"/>
<path d="M26.282 13.3255C26.282 6.51889 20.7443 0.981445 13.938 0.981445C7.13158 0.981445 1.59375 6.51909 1.59375 13.3255C1.59375 20.1318 7.1314 25.6695 13.9378 25.6695C20.7441 25.6695 26.282 20.132 26.282 13.3255ZM5.45475 13.3255C5.45475 8.64805 9.26015 4.84245 13.9378 4.84245C18.6154 4.84245 22.4207 8.64805 22.4207 13.3255C22.4207 18.0028 18.6154 21.8085 13.9378 21.8085C9.26015 21.8085 5.45475 18.0031 5.45475 13.3255Z" fill="#3BB77E"/>
<path d="M40.6023 25.6682H61.4296C62.4957 25.6682 63.36 24.8037 63.36 23.7377V2.91048C63.36 1.84446 62.4957 0.97998 61.4296 0.97998H40.6023C39.5362 0.97998 38.6719 1.84446 38.6719 2.91048V23.7377C38.6719 24.8037 39.5362 25.6682 40.6023 25.6682ZM42.5329 4.84099H59.499V21.8072H42.5329V4.84099Z" fill="#3BB77E"/>
<path d="M100.178 22.0054L89.0384 2.71208C88.6937 2.11478 88.0564 1.74683 87.3667 1.74683C86.6768 1.74683 86.0395 2.11478 85.6948 2.71208L74.5555 22.0054C74.2107 22.6029 74.2107 23.3387 74.5555 23.936C74.9004 24.5333 75.5377 24.9013 76.2274 24.9013H98.5058C99.1955 24.9013 99.8328 24.5333 100.178 23.936C100.523 23.3387 100.523 22.6029 100.178 22.0054ZM79.5711 21.0403L87.3664 7.53833L95.1618 21.0403H79.5711Z" fill="#3BB77E"/>
<path d="M51.0129 44.6563C52.0792 44.6563 52.9435 43.7917 52.9435 42.7257V37.2174L53.0216 37.3265C53.3986 37.8533 53.9913 38.1338 54.5932 38.1338C54.982 38.1338 55.3748 38.0167 55.7152 37.773C56.5822 37.1525 56.782 35.9467 56.1616 35.0797L52.583 30.0791C52.2205 29.5725 51.6359 29.272 51.0132 29.272C50.3903 29.272 49.8058 29.5725 49.4432 30.0791L45.8646 35.0797C45.2442 35.9467 45.444 37.1525 46.311 37.773C47.178 38.3934 48.3838 38.1938 49.0045 37.3267L49.0825 37.2174V42.7257C49.0825 43.792 49.9468 44.6563 51.0129 44.6563Z" fill="#3BB77E"/>
<path d="M35.1216 60.2914C35.1216 59.2253 34.2573 58.3608 33.1912 58.3608H15.8809V37.2174L15.9592 37.3265C16.3362 37.8533 16.9287 38.1338 17.5307 38.1338C17.9195 38.1338 18.3122 38.0167 18.6527 37.773C19.5197 37.1525 19.7195 35.9467 19.099 35.0797L15.5205 30.0791C15.1579 29.5725 14.5734 29.272 13.9506 29.272C13.3278 29.272 12.7433 29.5725 12.3807 30.0791L8.80216 35.0797C8.18169 35.9467 8.3815 37.1525 9.24849 37.773C10.1153 38.3934 11.3213 38.1938 11.9419 37.3267L12.0199 37.2174V60.2914C12.0199 61.3574 12.8842 62.2218 13.9504 62.2218H33.1912C34.2572 62.2218 35.1216 61.3575 35.1216 60.2914Z" fill="#3BB77E"/>
<path d="M89.6513 30.0789C89.2887 29.5723 88.7042 29.2717 88.0814 29.2717C87.4587 29.2717 86.8742 29.5723 86.5116 30.0789L82.933 35.0794C82.3126 35.9464 82.5123 37.1523 83.3793 37.7727C84.2463 38.3932 85.4523 38.1936 86.0727 37.3264L86.1509 37.2173V58.3607H68.8407C67.7744 58.3607 66.9102 59.2253 66.9102 60.2913C66.9102 61.3573 67.7744 62.2217 68.8407 62.2217H88.0814C89.1476 62.2217 90.0119 61.3573 90.0119 60.2913V37.2173L90.0902 37.3264C90.4672 37.8532 91.0599 38.1337 91.6617 38.1337C92.0506 38.1337 92.4432 38.0166 92.7837 37.7729C93.6507 37.1524 93.8506 35.9467 93.2302 35.0797L89.6513 30.0789Z" fill="#3BB77E"/>
<path d="M74.1454 89.3974C75.2116 89.3974 76.0758 88.5331 76.0758 87.4669C76.0758 86.4008 75.2116 85.5364 74.1454 85.5364C73.0791 85.5364 72.2148 86.4008 72.2148 87.4669C72.2148 88.5331 73.0791 89.3974 74.1454 89.3974Z" fill="#3BB77E"/>
</g>
</g>
</g>
</g>
<defs>
<clipPath id="clip0_6511_2272">
<rect width="100" height="100" fill="white" transform="translate(0.78125 0.97998)"/>
</clipPath>
<clipPath id="clip1_6511_2272">
<rect width="100" height="100" fill="white" transform="translate(0.78125 0.97998)"/>
</clipPath>
<clipPath id="clip2_6511_2272">
<rect width="100" height="100" fill="white" transform="translate(0.78125 0.97998)"/>
</clipPath>
</defs>
</svg>

<svg xmlns="http://www.w3.org/2000/svg" width="101" height="101" fill="none"><g clip-path="url(#a)"><g clip-path="url(#b)"><g clip-path="url(#c)"><mask id="d" width="100" height="100" x="1" y="0" maskUnits="userSpaceOnUse" style="mask-type:luminance"><path fill="#fff" d="M100.435.98H1.594v98.842h98.841z"/></mask><g mask="url(#d)"><path fill="#3BB77E" d="M74.144 94.224a1.93 1.93 0 0 0-1.922 1.736H57.695l-2.292-13.8 2.547-2.548a1.93 1.93 0 0 0 0-2.73l-2.254-2.254h3.852c4.227 0 8.16 2.098 10.521 5.612a1.93 1.93 0 1 0 3.205-2.153 16.51 16.51 0 0 0-13.596-7.318 11.63 11.63 0 0 0 3.01-7.816V60.12c0-6.437-5.237-11.675-11.675-11.675-6.437 0-11.675 5.238-11.675 11.675v2.832a11.63 11.63 0 0 0 3.012 7.817c-9.053.07-16.397 7.454-16.397 16.523V97.89a1.93 1.93 0 0 0 1.93 1.93h46.26a1.93 1.93 0 0 0 1.93-1.93v-1.737a1.93 1.93 0 0 0-1.93-1.93M51.036 81.067l-2.82-2.82 2.82-2.82 2.82 2.82zm-1 4.38a1.926 1.926 0 0 0 1.998 0l1.747 10.513h-5.49zM43.2 60.12c0-4.308 3.505-7.814 7.814-7.814s7.814 3.505 7.814 7.814v2.832c0 4.308-3.505 7.814-7.814 7.814S43.2 67.262 43.2 62.953zM29.815 87.293c0-6.984 5.681-12.665 12.664-12.665h3.896l-2.254 2.254a1.93 1.93 0 0 0 0 2.73l2.548 2.547-2.292 13.801H29.814z"/><path fill="#FDC040" d="M40.781 3.123c.572 0 13.572.476 20 .714v20.714l-20-.714zM86.496 3.837l-10 18.571h21.429l-10-17.857z"/><path stroke="#000" stroke-linecap="round" stroke-linejoin="round" stroke-width="1.429" d="M40.781 3.123c.572 0 13.572.476 20 .714v20.714l-20-.714zM86.496 3.837l-10 18.571h21.429l-10-17.857z"/><path fill="#3BB77E" d="M26.282 13.326C26.282 6.518 20.744.98 13.938.98S1.594 6.52 1.594 13.326c0 6.806 5.537 12.343 12.344 12.343s12.344-5.537 12.344-12.343m-20.827 0c0-4.678 3.805-8.484 8.483-8.484 4.677 0 8.483 3.806 8.483 8.484 0 4.677-3.806 8.482-8.483 8.482s-8.483-3.805-8.483-8.482M40.602 25.668H61.43a1.93 1.93 0 0 0 1.93-1.93V2.91A1.93 1.93 0 0 0 61.43.98H40.602a1.93 1.93 0 0 0-1.93 1.93v20.828a1.93 1.93 0 0 0 1.93 1.93m1.93-20.827H59.5v16.966H42.533zM100.178 22.005 89.038 2.712a1.93 1.93 0 0 0-3.343 0l-11.14 19.293a1.93 1.93 0 0 0 1.672 2.896h22.279a1.932 1.932 0 0 0 1.672-2.896m-20.607-.965 7.795-13.502 7.796 13.502zM51.013 44.656a1.93 1.93 0 0 0 1.93-1.93v-5.509l.079.11a1.93 1.93 0 0 0 2.693.446 1.93 1.93 0 0 0 .447-2.693l-3.579-5a1.93 1.93 0 0 0-3.14 0l-3.578 5a1.93 1.93 0 0 0 3.14 2.247l.078-.11v5.509a1.93 1.93 0 0 0 1.93 1.93M35.122 60.291a1.93 1.93 0 0 0-1.93-1.93H15.88V37.217l.078.11a1.93 1.93 0 0 0 2.694.446 1.93 1.93 0 0 0 .446-2.693l-3.578-5a1.93 1.93 0 0 0-3.14 0l-3.579 5a1.93 1.93 0 1 0 3.14 2.247l.078-.11v23.074a1.93 1.93 0 0 0 1.93 1.93h19.241a1.93 1.93 0 0 0 1.93-1.93M89.651 30.079a1.93 1.93 0 0 0-3.14 0l-3.578 5a1.93 1.93 0 0 0 3.14 2.247l.078-.109v21.144H68.84a1.93 1.93 0 0 0 0 3.86h19.24a1.93 1.93 0 0 0 1.93-1.93V37.217l.08.11a1.93 1.93 0 0 0 2.693.446 1.93 1.93 0 0 0 .446-2.693zM74.145 89.397a1.93 1.93 0 1 0 0-3.86 1.93 1.93 0 0 0 0 3.86"/></g></g></g></g><defs><clipPath id="a"><path fill="#fff" d="M.781.98h100v100h-100z"/></clipPath><clipPath id="b"><path fill="#fff" d="M.781.98h100v100h-100z"/></clipPath><clipPath id="c"><path fill="#fff" d="M.781.98h100v100h-100z"/></clipPath></defs></svg>
